X:1
T:Quick Step West Fencibles
L:1/8
M:2/4
I:linebreak $
K:D
V:1 treble 
V:1
 d/f/a/f/ dA | dg g2 | fedc | (e/d/c/B/) A2 | d/f/a/f/ dA | Bg g2 | fedc | d2 d2 :: Add=c | %9
 cB B2 |$ Beed | cA A2 | ecAe | fdAf | e>f e/d/c/B/ | A2 A2 || x4 | %17
